X:1
T:Title
%%score ( 1 2 3 ) { 4 | 5 }
L:1/8
Q:1/4=110
M:4/4
K:F
V:1 treble nm="Grand Piano, Soprano"
V:2 treble 
V:3 treble 
V:4 treble nm="Choir Pad, Gibraltar, 87.87 D"
V:5 bass 
V:1
 [FA]3 [FA] [FB]2 [FA]2 | [DG]2 D2 [DG]2 [DF]2 | [CE]3 [CF] [CG]2 C2 | C2 [CF]2 [FA]4 | %4
w: By~William~James~Kirkpatrick,~1883 * * *||||
 [FA]3 [FA] [FB]2 [FA]2 | [DG]2 D2 [DB]2 [DG]2 | [CF]2 [A,C]2 [CF]2 [FA]2 | A4 z4 | %8
w: ||||
 [EG]3 [FA] [EG]2 C2 | C2 [CF]2 [FB]2 [FA]2 | [FA]3 [FA] [^Fd]2 [Fc]2 | [Fc]2 [F=B]2 [E_B]4 | %12
w: ||||
 [FA]3 [GB] [Ac]2 F2 | [Ff]3 [Fc] [Fe]2 [Fd]2 | [Fc]2 F2 [EB]2 [FA]2 | A4 z4 | z8 |] %17
w: |||||
V:2
 x8 | x8 | x8 | x8 | x8 | x8 | x8 | F2 z G [CF]4 | x8 | x8 | x8 | x8 | x8 | x8 | x8 | z2 F2 z4 | %16
 x8 |] %17
V:3
 x8 | x8 | x8 | x8 | x8 | x8 | x8 | z2 E2 z4 | x8 | x8 | x8 | x8 | x8 | x8 | x8 | F2 z G [CF]4- | %16
 [CF]4 z4 |] %17
V:4
 C3 C D2 C2 | B,2[K:bass] B,2 G,2 G,2 | G,3 A, B,2 B,2 | A,2 A,2[K:treble] C4 | C3 C D2 C2 | %5
 B,2 B,2 B,2 B,2 | A,2 F,2 A,2[K:treble] C2 | C2 B,2 A,4 | C3 C C2[K:bass] B,2 | A,2 A,2 D2 C2 | %10
 C3 A, A,2[K:treble] D2 | D2 D2 C4 | C3 C C2 A,2 | C3 C C2 B,2 | C2 C2 C2[K:bass] C2 | %15
 C2 B,2 A,4- | A,4 z4 |] %17
V:5
 F,3 F, F,2 F,2 | B,,2 B,,2 B,,2 =B,,2 | C,3 C, C,2 C,2 | F,2 F,2 F,4 | F,3 F, F,2 F,2 | %5
 B,,2 B,,2 G,,2 B,,2 | C,2 C,2 C,2 C,2 | C,2 C,2 [F,,F,]4 | C,3 C, C,2 C,2 | F,2 F,2 F,2 F,2 | %10
 F,3 F, D,2 D,2 | G,2 G,2 C,4 | F,3 F, F,2 F,2 | A,3 A, B,2 z2 | A,2 A,2 G,2 F,2 | C,2 C,2 F,4- | %16
 F,4 z4 |] %17

